X:1
T:Schwanengesang
T:Frühlingssehnsucht
T:3. Frühlingssehnsucht
T:Franz Schubert
T:Schwanengesang (D.957)
T:Ludwig Rellstab
T:OpenScore (CC0)
T:OpenScore (CC0)
T:OpenScore (CC0)
T:OpenScore (CC0)
C:Franz Schubert
Z:Ludwig Rellstab
Z:OpenScore (CC0)
%%score ( 1 2 ) { ( 3 5 ) | 4 }
L:1/8
Q:1/4=140
M:2/4
K:Bb
V:1 treble nm="Voice"
V:2 treble 
V:3 treble nm="Piano"
V:5 treble 
V:4 bass 
V:1
"^Geschwind." z4 | z4 | z4 | z4 | z4 | z4 | z4 | z4 | z4 | z4 | z4 | z4 |:!p! d2 c c | B2 A2 | %14
w: ||||||||||||Säu- seln- de|Lüf- te|
w: ||||||||||||Bäch- lein, so|mun- ter|
w: ||||||||||||Grü- ssen- der|Son- ne|
w: ||||||||||||Grü- nend um-|krän- zet|
 B2 c c | A2 z2 | e2 d d | c2 G2 | B2 c c | d2 z2 | z4 | z4 | c2 B B | F2 B2 | e2 e e | (e2 d) z | %26
w: we- hend so|mild,|blu- mi- ger|Düf- te|ath- mend er-|füllt!|||Säu- seln- de|Lüf- te|we- hend so|mild, *|
w: Raus- chend zu-|mal,|Wol- len hin-|un- ter|Sil- bern in's|Thal.|||Bäch- lein, so|mun- ter|raus- chend zu-|mal, *|
w: spie- len- des|Gold,|hof- fen- de|Won- ne|brin- gest du|hold.|||Grü- ssen- der|Son- ne|spie- len- des|Gold, *|
w: Wäl- der und|Höh'!|schim- mernd er-|glän- zet|Blü- then- *|schnee!|||Grü- nend um-|krän- zet|Wäl- der und|Höh'! *|
 c2 B B | F2 B2 | e2 e e | (e2 d) z | z4 | z2 z d | f2 c c | d2 B B | f3 c | d2 z d | g2 d d | %37
w: blu- mi- ger|Düf- te|ath- mend er-|füllt! *||Wie|haucht ihr mich|won- nig be-|grü- ssend|an! Wie|habt ihr dem|
w: wol- len hin-|un- ter|Sil- bern in's|Thal. *||Die|schwe- ben- de|Wel- le, dort|* da-|hin! Tief|spie- geln sich|
w: hof- fen- de|Won- ne|Brin- gest du|hold. *||Wie|labt mich Dein|se- lig be-|grü- des|Bild! Es|lä- chelt am|
w: Schim- mernd er-|glän- zet|Blü- then- *|schnee! *||So|drän- get sich|Al- les zum|bräut- *|Licht; es|schwel- len die|
 e2 e e | e2 e f | e4 | !fermata!z2 z =E | F2 B d | f2 d d | c2 B c | d2 z F | F2 A d | f2 =e e | %47
w: po- chen- den|Her- zen ge-|than?|es|möch- te euch|fol- gen auf|luf- ti- ger|Bahn, es|möch- te euch|fol- gen auf|
w: Flu- ren und|Him- mel da-|rin|Was|ziehst du mich,|seh- nend ver-|lan- gen- der|Sinn, was|ziehst du mich,|seh- nend ver-|
w: tief- blau- en|Him- mel so|mild,|und|hat mir das|Au- ge mit|Thrä- nen ge-|füllt, und|hat mir das|Au- ge mit|
w: Kei- me, die|Knos- * pe|bricht;|sie|ha- ben ge-|fun- den, was|ih- nen ge-|bricht, sie|ha- ben ge-|fun- den, was|
 d2 ^c c | d2 z!mp! d | _e4- | e3 e |!>(! _f2!>)!!p! e2 | z4 | z4 | z4 | z4 | z4 :| _d2 c c | %58
w: luf- ti- ger|Bahn. Wo-|hin?|* wo-|hin? *||||||Rast- lo- ses|
w: lan- gen- der|Sinn, hin-|ab,|* hin-|ab? *|||||||
w: Thrä- nen ge-|füllt! Wa-|rum?|* wa-|rum? *|||||||
w: ih- nen ge-|bricht: und|du?|* und|du? *|||||||
 B2 A2 | B2 c c | A2 z2 | e2 _d d | c2 A2 | B2 c c | _d2 z2 | z4 | z4 | e2 _dd | _A2 _d2 | %69
w: Seh- nen!|wün- schen- des|Herz,|im- mer nur|Thrä- nen,|Kla- ge und|Schmerz?|||Rast- lo- ses|Seh- nen!|
w: |||||||||||
w: |||||||||||
w: |||||||||||
 _g2 g g | (_g2 f) z | e2 _d d | _A2 _d2 | _g2 g g | (_g2 f) z | z4 | z2 z =d | f2 c c | d2 B B | %79
w: wün- schen- des|Herz, *|im- mer nur|Thrä- nen,|Kla- ge und|Schmerz? *||Auch|ich bin mir|schwel- len- der|
w: ||||||||||
w: ||||||||||
w: ||||||||||
 f2 c c | d2 z d | g2 d d | e2 e e | e2 e _f | e4 | !fermata!z2 =e2 | f2 dB | F2 B2 | c2 d e | %89
w: Trie- be be-|wusst! wer|stil- let mir|end- lich die|drän- gen- de|Lust?|Nur|du be- *|freist den|Lenz in der|
w: ||||||||||
w: ||||||||||
w: ||||||||||
 d3 f | a3 g | f2 =e2 | d2 ^c c | d2 z d | e4- | e2 _g2 | f4- | f4- | f2 z2 | z4 | z4 | z4 | %102
w: Brust, nur|du be-|freist den|Lenz in der|Brust, nur|du,|* nur|du!||||||
w: |||||||||||||
w: |||||||||||||
w: |||||||||||||
 !fermata!z4 |] %103
w: |
w: |
w: |
w: |
V:2
 x4 | x4 | x4 | x4 | x4 | x4 | x4 | x4 | x4 | x4 | x4 | x4 |: x4 | x4 | x4 | x4 | x4 | x4 | x2 c2 | %19
w: |||||||||||||||||||
w: |||||||||||||||||||
w: |||||||||||||||||||
w: |||||||||||||||||||
 x4 | x4 | x4 | x4 | x4 | x4 | x4 | x4 | x4 | x2 e2 | x4 | x4 | x4 | x4 | x4 | f2 c c | x4 | x4 | %37
w: ||||||||||||||||||
w: |||||||||||||||eilt sie *|||
w: |||||||||||||||* ssen- *|||
w: |||||||||||||||* li- chen|||
 x4 | e3 f | x4 | x4 | x4 | x4 | x4 | x4 | x4 | x4 | x4 | x4 | x4 | x4 | x4 | x4 | x4 | x4 | x4 | %56
w: |||||||||||||||||||
w: |||||||||||||||||||
w: |||||||||||||||||||
w: |||||||||||||||||||
 x4 :| x4 | x4 | x4 | x4 | x4 | x4 | x4 | x4 | x4 | x4 | x4 | x4 | x4 | x4 | x4 | x4 | x4 | x4 | %75
w: |||||||||||||||||||
w: |||||||||||||||||||
w: |||||||||||||||||||
w: |||||||||||||||||||
 x4 | x4 | x4 | x4 | x4 | x4 | x4 | x4 | x4 | x4 | x4 | x4 | x4 | x4 | x4 | x4 | x4 | x4 | x4 | %94
w: |||||||||||||||||||
w: |||||||||||||||||||
w: |||||||||||||||||||
w: |||||||||||||||||||
 x4 | x4 | x4 | x4 | x4 | x4 | x4 | x4 | x4 |] %103
w: |||||||||
w: |||||||||
w: |||||||||
w: |||||||||
V:3
 (3z [DB]B, (3z [DB]B, | (3z [DB]B, (3z [DB]B, | (3z [DB]B, (3z [EB]B, | %3
!>(! (3z"_cresc." [=EB]!>)!!pp!B, (3z [FB]B, | (3z [FB]B, (3z [Fc]C | %5
!mf!!>(! (3z [F^c]!>)!!p!^C (3z [Fd]D | (3z [Bd]D (3z [Be]E |!>(! (3z [B=e]=E (3z [Bf]F | %8
 (3z [Bf]F (3z [Af]F | (3z!>)! [cf]F (3z [Bf]F |!p! (3z [Bf]F (3z [Af]F | (3z [cf]F (3z [Bf]F |: %12
!p! (3z [Bd]F (3z [Ac]F | (3z BF (3z AF | (3z BF (3z [Gc]C | (3z [FA]C (3z [FA]C | %16
 (3z [ce]G (3z [=Bd]G | (3z cG (3z GC | (3z [DB]F (3z [Ac]F | (3z [Bd]F (3z B=E | %20
 (3z BF (3z [Ac]F | (3z [Bd]F (3z [Bd]F | (3z [Fc]C (3z [FB]B, | (3z [FA]A, (3z [FB]B, | %24
 (3z [Ge]!<(!E (3z [Ae]E!<)! |!mf!!>(! (3z [Be]E (3z [Bd]!>)!!p!D | (3z [Fc]C (3z [FB]B, | %27
 (3z [FA]A, (3z [FB]B, |!<(! (3z [Be]E (3z [Ae]E!<)! |!f!!>(! (3z [Be]E (3z [Bd]D!>)! | %30
!p! (3z AF (3z BF | (3z [Ac]E (3z [Bd]F |!>(! (3z [df]!>)!E (3z [Ac]F | (3z [Bd]E (3z BF | %34
!>(! (3z [df]!>)!E (3z [Ac]F | (3z [Bd]E (3z BF | (3z"_cresc." [eg]F (3z [=Bd]G | %37
!<(! (3z [ce]F (3z e_B!<)! |!f!!>(! (3z eB (3z eB!>)! |!p! (3z eB (3z eB | %40
 (3z e!fermata!B (3z =E^C | (3z FC [Dd]>[Bd] |!>(! ([df]2!>)! [Bd]2) | (3z [Ac]E (3z B[GB] | %44
 (3z [Bd]E (3z FD |!f! (3z!<(! AE [Ad]>!ff![Adf]!<)! |!>(! [Afa]2!>)! (3z!mf! [=eg]B | %47
 (3z [df]G (3z [^c=e]A | (3z [Ad]E (3z [Ad]F |!pp! ([B_e]4 | [_Ae]4 | [Ge]4-) | [Ge]4 | [G_d]4- | %54
 [Gd]4 | ([F-=d]4 | [EFc]4) :|!mp! (3z [B_d]F (3z [Ac]F | (3z BF (3z AF | (3z BF (3z [_Gc]C | %60
 (3z [FA]C (3z [FA]C | (3z ec (3z _dF | (3z cF (3z AF | (3z BF (3z [Ac]F | (3z [B_d]F (3z B=E | %65
 (3z BF (3z [Ac]F | (3z [B_d]F (3z [Bd]F | (3z [_Ae]E (3z [A_d]_D | (3z [_Ac]C (3z [A_d]_D | %69
 (3z [B_g]!<(!_G (3z [cg]G!<)! |!f!!>(! (3z [_d_g]_G (3z [df]!>)!F |!mp! (3z [_Ae]F (3z [A_d]_D | %72
 (3z [_Ac]C (3z!<(! [A_d]_D | (3z [B_g]!<)!!f!!>(!_G (3z [cg]G!>)! |!mp! (3z [_d_g]_G (3z [df]F | %75
!<(! (3z [_df]F (3z [df]F!<)! |!f!!>(! (3z [_df]F (3z [=df]!mp!F!>)! | %77
!>(! (3z [df]!>)!F (3z [Ac]F | (3z [Bd]F (3z BF | (3z [df]F (3z [Ac]F | (3z [Bd]F (3z BF | %81
!>(! (3z [eg]!>)!G (3z [=Bd]G | (3z [ce]G (3z e_B | (3z ec (3z eB | (3z ec (3z eB | %85
 (3z e!fermata!c (3z =E^C | (3z FD [DB]>[Bd] |!>(! ([df]2!>)! [Bd]2) | (3z [Ac]F (3z [FB][Ac] | %89
 (3z [Bd]F (3z FD |!f! (3z AF [Ad]>[Adf] | [Afa]2 (3z [=eg]B | (3z [df]A (3z [^c=e]A | %93
 (3z [Ad]F (3z [_ABd]F |!ff!!>(! [EGBe]4!>)! |!f!!>(! [E_GBe]4!>)! |!mf!!>(! [CEF=A]4- | %97
 [CEFA]4!>)! |!mp! (3z [DFB]B, (3z[K:bass] [B,DF]F, |"_dim." (3z [B,D]F, (3z [F,B,]D, | %100
 [D,F,B,]2 z2 |!pp! [E,_G,B,]2 z2 |!ppp! !fermata![D,F,B,]4 |] %103
V:4
!p! B,, z B,, z | B,, z B,, z | B,,2 [B,,C,]2 | [B,,^C,]2 [B,,D,]2 | [B,,D,]2 [B,,E,]2 | %5
 [B,,=E,]2 [B,,F,]2 | [B,,F,B,]2 [C,F,C]2 | [^C,F,^C]2 [D,F,D]2 | [F,CE]2 [F,CE]2 | [F,D]2 [F,D]2 | %10
 [F,CE]2 [F,CE]2 | [B,D]2 [B,D]2 |: ([B,D]2 [F,C]2 | [D,B,]2 [C,A,]2) | ([D,B,]2 [E,G,]2 | %15
 [F,A,]2) [F,A,]2 | [CE]2 [G,D]2 | [E,C]2 [=E,G,]2 | F,2 [F,C]2 | [B,D]2 [G,B,]2 | [D,B,]2 [F,C]2 | %21
 [B,D]2 [B,D]2 | [F,,F,G,]2 [F,,D,F,]2 | [F,,C,F,]2 [F,,D,F,]2 | [F,,C,G,]2 [F,,F,]2 | %25
 [F,,B,,F,]2 [F,,F,]2 | [F,,F,G,]2 [F,,D,F,]2 | [F,,C,F,]2 [F,,D,F,]2 | [F,,C,G,]2 [F,,F,]2 | %29
 [B,,F,]2 F,2 | ([C,A,]2 [D,B,]2 | [F,C]2 [B,D]2) | ([DF]2 [F,E]2 | [B,D]2 [D,B,]2) | %34
 ([DF]2 [F,C]2 | [B,D]2 [D,B,]2) | [EG]2 [F,D]2 | [CE]2 [G,_DE]2 | [_A,CE]2 [G,_DE]2 | %39
 [_A,CE]2 [G,_DE]2 | !fermata![_A,CE]2 [G,B,]2 | [F,B,]2 [F,B,]>[B,D] | ([DF]2 [B,D]2) | %43
 [F,C]2 [D,B,]>[F,C] | [B,D]2 [D,F,]2 | [D,F,]2 [F,A,]>[A,D] | [DF]2 [G,B,=E]2 | %47
 [A,DF]2 [A,^C=E]2 | [D,A,D]2 D2 | ([G,_D]4 | [_A,_C]4 | [E,B,]4-) | [E,B,]4 | [=E,B,]4- | %54
 [E,B,]4 | ([F,-B,]4 | [F,A,]4) :| ([B,_D]2 [F,C]2 | [_D,B,]2 [C,A,]2) | ([_D,B,]2 [E,_G,]2 | %60
 F,2) F,2 | ([_G,A,E]2 [F,B,_D]2 | [E,F,C]2 [C,F,A,]2) | ([_D,F,B,]2 [F,C]2 | [B,_D]2) [_G,B,]2 | %65
 ([_D,B,]2 [F,C]2 | [B,_D]2) [B,D]2 | [_A,,_G,_A,]2 [A,,F,A,]2 | [_A,,E,_A,]2 [A,,F,A,]2 | %69
 [_A,,E,B,]2 [A,,_A,]2 | [_A,,_D,_A,]2 [A,,A,]2 | [_A,,_G,_A,]2 [A,,F,A,]2 | %72
 [_A,,E,_A,]2 [A,,F,A,]2 | [_A,,E,B,]2 [A,,_A,]2 | [_A,,_D,_A,]2 [A,,A,]2 | %75
 ([_A,,_A,]2 [=A,,=A,]2 | [B,,B,]2) [B,=D]2 | ([DF]2 [F,C]2 | [B,D]2 [D,B,]2) | ([DF]2 [F,C]2 | %80
 [B,D]2 [D,B,]2) | [EG]2 [G,D]2 | [CE]2 [G,_DE]2 | [_A,CE]2 [G,_DE]2 | [_A,CE]2 [G,_DE]2 | %85
 !fermata![_A,CE]2 [G,B,]2 | [F,B,]2 [F,B,]>[B,D] | ([DF]2 [B,D]2) | [F,C]2 [D,B,]>[F,C] | %89
 [B,D]2 [D,F,]2 | [D,F,]2 [F,A,]>[A,D] | [DF]2 [G,B,=E]2 | [A,DF]2 [A,^C=E]2 | [D,A,D]2 [B,,B,]2 | %94
 [E,,E,]4 | [E,,E,]4 | [F,,F,]4- | [F,,F,]4 | [B,,,B,,]2 [B,,,B,,]2 | [B,,,B,,]2 [B,,,B,,]2 | %100
!p! [B,,,B,,]2 z2 | [B,,,B,,]2 z2 | !fermata![B,,,B,,]4 |] %103
V:5
 x4 | x4 | x4 | x4 | x4 | x4 | x4 | x4 | x4 | x4 | x4 | x4 |: x4 | x4 | x4 | x4 | x4 | x4 | x4 | %19
 x4 | x4 | x4 | x4 | x4 | x4 | x4 | x4 | x4 | x4 | x4 | x4 | x4 | x4 | x4 | x4 | x4 | x4 | x4 | %38
 x4 | x4 | x4 | x4 | x4 | x2 (3:2:2x F2 | x4 | x4 | x4 | x4 | x4 | x4 | x4 | x4 | x4 | x4 | x4 | %55
 x4 | x4 :| x4 | x4 | x4 | x4 | x4 | x4 | x4 | x4 | x4 | x4 | x4 | x4 | x4 | x4 | x4 | x4 | x4 | %74
 x4 | x4 | x4 | x4 | x4 | x4 | x4 | x4 | x4 | x4 | x4 | x4 | x4 | x4 | x4 | x4 | x4 | x4 | x4 | %93
 x4 | x4 | x4 | x4 | x4 | x8/3[K:bass] x4/3 | x4 | x4 | x4 | x4 |] %103

